icons/dz.svg

<?xml version="1.0" ?>
<svg xmlns="http://www.w3.org/2000/svg" xmlns:ev="http://www.w3.org/2001/xml-events" xmlns:xlink="http://www.w3.org/1999/xlink" baseProfile="full" height="595px" version="1.1" viewBox="-1028.9288013277499 -971.4220837986376 12295.955128304751 12190.331700578135" width="600px">
	<defs/>
	<path d="M 8439.0,10173.0 C 8459.0,10149.0 8459.0,10146.0 8444.0,10128.0 C 8430.0,10113.0 8412.0,10110.0 8336.0,10111.0 C 8196.0,10112.0 8151.0,10122.0 8117.0,10160.0 C 8090.0,10190.0 8085.0,10192.0 8042.0,10186.0 C 8005.0,10181.0 7988.0,10172.0 7960.0,10143.0 C 7941.0,10122.0 7907.0,10097.0 7885.0,10087.0 C 7745.0,10022.0 7518.0,9960.0 7425.0,9960.0 L 7380.0,9960.0 L 7380.0,9999.0 C 7380.0,10041.0 7379.0,10042.0 7312.0,10055.0 C 7294.0,10059.0 7154.0,10072.0 7000.0,10084.0 L 6721.0,10106.0 L 6669.0,10067.0 L 6618.0,10027.0 L 6470.0,10034.0 L 6322.0,10041.0 L 6223.0,9976.0 C 6114.0,9903.0 6068.0,9892.0 6020.0,9930.0 C 5988.0,9955.0 5970.0,9955.0 5890.0,9929.0 C 5854.0,9918.0 5778.0,9905.0 5720.0,9899.0 C 5322.0,9863.0 4969.0,9720.0 4832.0,9540.0 C 4802.0,9502.0 4772.0,9470.0 4766.0,9470.0 C 4739.0,9470.0 4684.0,9494.0 4660.0,9516.0 C 4625.0,9548.0 4579.0,9537.0 4567.0,9493.0 C 4556.0,9455.0 4513.0,9440.0 4432.0,9447.0 C 4375.0,9452.0 4374.0,9452.0 4290.0,9393.0 C 4220.0,9345.0 4204.0,9328.0 4195.0,9298.0 C 4189.0,9277.0 4180.0,9256.0 4174.0,9250.0 C 4169.0,9245.0 4117.0,9224.0 4060.0,9205.0 C 3976.0,9177.0 3941.0,9170.0 3877.0,9170.0 L 3799.0,9170.0 L 3862.0,9095.0 C 3974.0,8962.0 3966.0,8976.0 3945.0,8937.0 C 3928.0,8904.0 3928.0,8901.0 3945.0,8851.0 L 3964.0,8800.0 L 3935.0,8770.0 L 3906.0,8740.0 L 3926.0,8651.0 L 3946.0,8562.0 L 3924.0,8518.0 C 3907.0,8486.0 3901.0,8458.0 3900.0,8409.0 C 3900.0,8357.0 3896.0,8339.0 3880.0,8325.0 C 3861.0,8308.0 3861.0,8307.0 3897.0,8263.0 L 3933.0,8219.0 L 3902.0,8148.0 L 3871.0,8078.0 L 3915.0,8020.0 C 3964.0,7956.0 3965.0,7951.0 3949.0,7905.0 C 3939.0,7878.0 3941.0,7866.0 3964.0,7814.0 C 3988.0,7761.0 4000.0,7748.0 4080.0,7692.0 C 4130.0,7657.0 4170.0,7625.0 4170.0,7621.0 C 4170.0,7617.0 4144.0,7601.0 4111.0,7586.0 C 4058.0,7560.0 4052.0,7554.0 4043.0,7515.0 C 4034.0,7475.0 4035.0,7469.0 4057.0,7447.0 L 4081.0,7423.0 L 4053.0,7405.0 C 4026.0,7387.0 4022.0,7387.0 3835.0,7418.0 C 3679.0,7445.0 3618.0,7450.0 3498.0,7450.0 C 3386.0,7450.0 3350.0,7447.0 3350.0,7438.0 C 3351.0,7431.0 3357.0,7396.0 3365.0,7360.0 C 3372.0,7324.0 3377.0,7294.0 3375.0,7292.0 C 3373.0,7290.0 3299.0,7274.0 3210.0,7257.0 L 3048.0,7225.0 L 3016.0,7133.0 L 2984.0,7042.0 L 3026.0,6993.0 L 3068.0,6945.0 L 3049.0,6897.0 C 3039.0,6871.0 3030.0,6839.0 3030.0,6826.0 C 3030.0,6800.0 3001.0,6790.0 2928.0,6790.0 C 2905.0,6790.0 2846.0,6772.0 2782.0,6746.0 C 2685.0,6706.0 2663.0,6701.0 2540.0,6691.0 L 2406.0,6679.0 L 2340.0,6630.0 C 2300.0,6601.0 2236.0,6566.0 2181.0,6546.0 C 2131.0,6526.0 2036.0,6479.0 1970.0,6440.0 C 1851.0,6370.0 1850.0,6369.0 1850.0,6332.0 C 1850.0,6300.0 1840.0,6284.0 1774.0,6213.0 C 1732.0,6167.0 1695.0,6130.0 1692.0,6130.0 C 1688.0,6130.0 1675.0,6145.0 1662.0,6164.0 C 1641.0,6195.0 1635.0,6198.0 1569.0,6204.0 C 1465.0,6213.0 1136.0,6193.0 1073.0,6173.0 L 1020.0,6157.0 L 933.0,6194.0 L 845.0,6231.0 L 815.0,6194.0 C 799.0,6173.0 778.0,6147.0 769.0,6136.0 C 755.0,6119.0 741.0,6117.0 662.0,6117.0 C 573.0,6118.0 570.0,6117.0 570.0,6095.0 C 570.0,6078.0 554.0,6062.0 507.0,6033.0 C 473.0,6011.0 388.0,5939.0 319.0,5872.0 C 202.0,5759.0 188.0,5749.0 145.0,5743.0 C 119.0,5740.0 97.0,5732.0 95.0,5726.0 C 91.0,5714.0 0.0,5013.0 0.0,4994.0 C 0.0,4978.0 519.0,4513.0 595.0,4459.0 C 663.0,4412.0 787.0,4315.0 1070.0,4091.0 C 1177.0,4005.0 1411.0,3828.0 1590.0,3697.0 C 1769.0,3566.0 2433.0,3066.0 3067.0,2587.0 C 4099.0,1805.0 4219.0,1712.0 4222.0,1685.0 C 4225.0,1659.0 4255.0,1634.0 4505.0,1459.0 C 4821.0,1237.0 4793.0,1272.0 4777.0,1129.0 L 4770.0,1063.0 L 4884.0,1016.0 L 4999.0,968.0 L 5012.0,918.0 C 5023.0,874.0 5034.0,859.0 5093.0,809.0 C 5130.0,776.0 5164.0,750.0 5168.0,750.0 C 5172.0,750.0 5197.0,758.0 5224.0,767.0 L 5273.0,785.0 L 5309.0,740.0 C 5385.0,645.0 5384.0,646.0 5525.0,620.0 C 5646.0,599.0 5659.0,594.0 5708.0,556.0 C 5766.0,511.0 5767.0,507.0 5752.0,368.0 C 5746.0,317.0 5737.0,291.0 5713.0,258.0 C 5697.0,234.0 5677.0,198.0 5670.0,176.0 L 5658.0,138.0 L 5701.0,99.0 C 5725.0,79.0 5754.0,56.0 5765.0,50.0 C 5781.0,42.0 5913.0,69.0 6428.0,189.0 C 6980.0,317.0 7075.0,341.0 7098.0,362.0 C 7113.0,376.0 7306.0,554.0 7526.0,758.0 L 7927.0,1129.0 L 9081.0,1861.0 C 9716.0,2263.0 10237.0,2594.0 10238.0,2595.0 C 10240.0,2597.0 10211.0,2687.0 10173.0,2795.0 L 10105.0,2991.0 L 10063.0,2985.0 C 10022.0,2979.0 10018.0,2981.0 9894.0,3074.0 L 9767.0,3170.0 L 9670.0,3170.0 C 9616.0,3170.0 9552.0,3173.0 9527.0,3176.0 L 9480.0,3183.0 L 9425.0,3287.0 L 9370.0,3391.0 L 9370.0,3499.0 L 9370.0,3606.0 L 9225.0,3854.0 C 9145.0,3991.0 9080.0,4105.0 9080.0,4107.0 C 9080.0,4110.0 9098.0,4135.0 9121.0,4163.0 C 9155.0,4206.0 9174.0,4220.0 9238.0,4245.0 C 9308.0,4273.0 9317.0,4280.0 9343.0,4325.0 C 9377.0,4386.0 9375.0,4425.0 9330.0,4607.0 L 9300.0,4729.0 L 9342.0,4806.0 C 9367.0,4853.0 9393.0,4921.0 9406.0,4977.0 L 9429.0,5071.0 L 9408.0,5164.0 L 9386.0,5258.0 L 9419.0,5380.0 C 9455.0,5517.0 9456.0,5488.0 9413.0,5790.0 L 9388.0,5975.0 L 9319.0,6110.0 C 9282.0,6185.0 9248.0,6264.0 9245.0,6285.0 C 9239.0,6323.0 9240.0,6326.0 9279.0,6350.0 C 9302.0,6364.0 9320.0,6378.0 9320.0,6383.0 C 9320.0,6395.0 9181.0,7332.0 9174.0,7362.0 C 9170.0,7382.0 9129.0,7419.0 9000.0,7515.0 C 8844.0,7631.0 8830.0,7645.0 8825.0,7678.0 C 8821.0,7699.0 8816.0,7729.0 8814.0,7745.0 C 8811.0,7762.0 8792.0,7812.0 8772.0,7858.0 C 8736.0,7940.0 8735.0,7941.0 8664.0,7980.0 L 8593.0,8019.0 L 8547.0,8142.0 C 8477.0,8326.0 8464.0,8389.0 8480.0,8457.0 C 8498.0,8528.0 8522.0,8558.0 8573.0,8571.0 C 8608.0,8580.0 8619.0,8589.0 8642.0,8630.0 C 8662.0,8666.0 8687.0,8690.0 8737.0,8723.0 C 8774.0,8747.0 8823.0,8786.0 8844.0,8808.0 L 8884.0,8849.0 L 8872.0,8899.0 C 8862.0,8944.0 8863.0,8955.0 8881.0,8997.0 C 8892.0,9024.0 8920.0,9069.0 8942.0,9098.0 L 8982.0,9152.0 L 8949.0,9186.0 C 8916.0,9220.0 8916.0,9221.0 8932.0,9253.0 C 8968.0,9324.0 8970.0,9346.0 8948.0,9412.0 C 8929.0,9468.0 8928.0,9482.0 8938.0,9555.0 C 8944.0,9605.0 8963.0,9671.0 8985.0,9724.0 C 9005.0,9773.0 9020.0,9813.0 9018.0,9815.0 C 9016.0,9816.0 8993.0,9829.0 8966.0,9842.0 L 8917.0,9867.0 L 8978.0,9909.0 C 9029.0,9943.0 9040.0,9956.0 9040.0,9978.0 C 9040.0,10002.0 9048.0,10010.0 9095.0,10033.0 C 9147.0,10058.0 9149.0,10061.0 9138.0,10085.0 C 9128.0,10107.0 9121.0,10110.0 9071.0,10110.0 C 9040.0,10111.0 8995.0,10115.0 8970.0,10120.0 C 8929.0,10128.0 8920.0,10125.0 8863.0,10094.0 C 8829.0,10075.0 8789.0,10060.0 8772.0,10060.0 C 8748.0,10060.0 8741.0,10065.0 8734.0,10093.0 C 8725.0,10122.0 8720.0,10126.0 8679.0,10130.0 C 8655.0,10133.0 8621.0,10145.0 8604.0,10157.0 C 8587.0,10169.0 8544.0,10184.0 8509.0,10189.0 C 8417.0,10204.0 8415.0,10204.0 8439.0,10173.0" fill="pink"/>
</svg>

<?xml version="1.0" standalone="no"?>
<!DOCTYPE svg PUBLIC "-//W3C//DTD SVG 20010904//EN"
 "http://www.w3.org/TR/2001/REC-SVG-20010904/DTD/svg10.dtd">
<svg version="1.0" xmlns="http://www.w3.org/2000/svg"
 width="1024.000000pt" height="1024.000000pt" viewBox="0 0 1024.000000 1024.000000"
 preserveAspectRatio="xMidYMid meet">
<metadata>
Created by potrace 1.10, written by Peter Selinger 2001-2011
</metadata>
<g transform="translate(0.000000,1024.000000) scale(0.100000,-0.100000)"
fill="#000000" stroke="none">
<path d="M8439 10173 c20 -24 20 -27 5 -45 -14 -15 -32 -18 -108 -17 -140 1
-185 11 -219 49 -27 30 -32 32 -75 26 -37 -5 -54 -14 -82 -43 -19 -21 -53 -46
-75 -56 -140 -65 -367 -127 -460 -127 l-45 0 0 39 c0 42 -1 43 -68 56 -18 4
-158 17 -312 29 l-279 22 -52 -39 -51 -40 -148 7 -148 7 -99 -65 c-109 -73
-155 -84 -203 -46 -32 25 -50 25 -130 -1 -36 -11 -112 -24 -170 -30 -398 -36
-751 -179 -888 -359 -30 -38 -60 -70 -66 -70 -27 0 -82 24 -106 46 -35 32 -81
21 -93 -23 -11 -38 -54 -53 -135 -46 -57 5 -58 5 -142 -54 -70 -48 -86 -65
-95 -95 -6 -21 -15 -42 -21 -48 -5 -5 -57 -26 -114 -45 -84 -28 -119 -35 -183
-35 l-78 0 63 -75 c112 -133 104 -119 83 -158 -17 -33 -17 -36 0 -86 l19 -51
-29 -30 -29 -30 20 -89 20 -89 -22 -44 c-17 -32 -23 -60 -24 -109 0 -52 -4
-70 -20 -84 -19 -17 -19 -18 17 -62 l36 -44 -31 -71 -31 -70 44 -58 c49 -64
50 -69 34 -115 -10 -27 -8 -39 15 -91 24 -53 36 -66 116 -122 50 -35 90 -67
90 -71 0 -4 -26 -20 -59 -35 -53 -26 -59 -32 -68 -71 -9 -40 -8 -46 14 -68
l24 -24 -28 -18 c-27 -18 -31 -18 -218 13 -156 27 -217 32 -337 32 -112 0
-148 -3 -148 -12 1 -7 7 -42 15 -78 7 -36 12 -66 10 -68 -2 -2 -76 -18 -165
-35 l-162 -32 -32 -92 -32 -91 42 -49 42 -48 -19 -48 c-10 -26 -19 -58 -19
-71 0 -26 -29 -36 -102 -36 -23 0 -82 -18 -146 -44 -97 -40 -119 -45 -242 -55
l-134 -12 -66 -49 c-40 -29 -104 -64 -159 -84 -50 -20 -145 -67 -211 -106
-119 -70 -120 -71 -120 -108 0 -32 -10 -48 -76 -119 -42 -46 -79 -83 -82 -83
-4 0 -17 15 -30 34 -21 31 -27 34 -93 40 -104 9 -433 -11 -496 -31 l-53 -16
-87 37 -88 37 -30 -37 c-16 -21 -37 -47 -46 -58 -14 -17 -28 -19 -107 -19 -89
1 -92 0 -92 -22 0 -17 -16 -33 -63 -62 -34 -22 -119 -94 -188 -161 -117 -113
-131 -123 -174 -129 -26 -3 -48 -11 -50 -17 -4 -12 -95 -713 -95 -732 0 -16
519 -481 595 -535 68 -47 192 -144 475 -368 107 -86 341 -263 520 -394 179
-131 843 -631 1477 -1110 1032 -782 1152 -875 1155 -902 3 -26 33 -51 283
-226 316 -222 288 -187 272 -330 l-7 -66 114 -47 115 -48 13 -50 c11 -44 22
-59 81 -109 37 -33 71 -59 75 -59 4 0 29 8 56 17 l49 18 36 -45 c76 -95 75
-94 216 -120 121 -21 134 -26 183 -64 58 -45 59 -49 44 -188 -6 -51 -15 -77
-39 -110 -16 -24 -36 -60 -43 -82 l-12 -38 43 -39 c24 -20 53 -43 64 -49 16
-8 148 19 663 139 552 128 647 152 670 173 15 14 208 192 428 396 l401 371
1154 732 c635 402 1156 733 1157 734 2 2 -27 92 -65 200 l-68 196 -42 -6 c-41
-6 -45 -4 -169 89 l-127 96 -97 0 c-54 0 -118 3 -143 6 l-47 7 -55 104 -55
104 0 108 0 107 -145 248 c-80 137 -145 251 -145 253 0 3 18 28 41 56 34 43
53 57 117 82 70 28 79 35 105 80 34 61 32 100 -13 282 l-30 122 42 77 c25 47
51 115 64 171 l23 94 -21 93 -22 94 33 122 c36 137 37 108 -6 410 l-25 185
-69 135 c-37 75 -71 154 -74 175 -6 38 -5 41 34 65 23 14 41 28 41 33 0 12
-139 949 -146 979 -4 20 -45 57 -174 153 -156 116 -170 130 -175 163 -4 21 -9
51 -11 67 -3 17 -22 67 -42 113 -36 82 -37 83 -108 122 l-71 39 -46 123 c-70
184 -83 247 -67 315 18 71 42 101 93 114 35 9 46 18 69 59 20 36 45 60 95 93
37 24 86 63 107 85 l40 41 -12 50 c-10 45 -9 56 9 98 11 27 39 72 61 101 l40
54 -33 34 c-33 34 -33 35 -17 67 36 71 38 93 16 159 -19 56 -20 70 -10 143 6
50 25 116 47 169 20 49 35 89 33 91 -2 1 -25 14 -52 27 l-49 25 61 42 c51 34
62 47 62 69 0 24 8 32 55 55 52 25 54 28 43 52 -10 22 -17 25 -67 25 -31 1
-76 5 -101 10 -41 8 -50 5 -107 -26 -34 -19 -74 -34 -91 -34 -24 0 -31 5 -38
33 -9 29 -14 33 -55 37 -24 3 -58 15 -75 27 -17 12 -60 27 -95 32 -92 15 -94
15 -70 -16z"/>
</g>
</svg>
